X:289
T:Killeigh Abbey
R:jig
C:John Brady
S:Kevin Finucane
Z:id:hn-jig-289
M:6/8
K:A
B|~c3 efa|fec ecB|~A3 FEF|ABc ecA|
~f3 ~a3|fec ecB|AFE Ace|fec A2:|
|:E|Ace ~a3|baf ecB|AFE Ace|fec BAF|
E2E Ace|fdf ecB|AFE Ace|fec A2:|

